app/public/dtpr-icons/boolean.svg

<svg width="36" height="36" viewBox="0 0 36 36" fill="none" xmlns="http://www.w3.org/2000/svg">
<path fill-rule="evenodd" clip-rule="evenodd" d="M12.9993 16.395C12.0803 16.395 11.3323 15.647 11.3323 14.728C11.3323 13.809 12.0803 13.061 12.9993 13.061C13.9183 13.061 14.6663 13.809 14.6663 14.728C14.6663 15.647 13.9183 16.395 12.9993 16.395ZM15.3563 12.371C15.0513 12.065 14.6943 11.825 14.2973 11.657C13.8853 11.482 13.4493 11.395 12.9993 11.395C12.5493 11.395 12.1133 11.482 11.7013 11.657C11.3043 11.825 10.9483 12.065 10.6423 12.371C10.3363 12.677 10.0963 13.033 9.92832 13.43C9.75332 13.842 9.66632 14.278 9.66632 14.728C9.66632 15.178 9.75332 15.614 9.92832 16.026C10.0963 16.423 10.3363 16.78 10.6423 17.085C10.9483 17.391 11.3043 17.632 11.7013 17.799C12.1133 17.974 12.5493 18.062 12.9993 18.062C13.4493 18.062 13.8853 17.974 14.2973 17.799C14.6943 17.632 15.0513 17.391 15.3563 17.085C15.5643 16.877 15.7423 16.646 15.8873 16.395H24.6673C25.5873 16.395 26.3343 15.649 26.3343 14.728C26.3343 13.808 25.5873 13.061 24.6673 13.061H15.8873C15.7423 12.81 15.5643 12.579 15.3563 12.371Z" fill="black"/>
<path fill-rule="evenodd" clip-rule="evenodd" d="M23.0007 23.0625C22.0817 23.0625 21.3337 22.3145 21.3337 21.3955C21.3337 20.4765 22.0817 19.7295 23.0007 19.7295C23.9197 19.7295 24.6677 20.4765 24.6677 21.3955C24.6677 22.3145 23.9197 23.0625 23.0007 23.0625ZM25.3577 19.0385C25.0527 18.7325 24.6957 18.4925 24.2987 18.3245C23.8877 18.1505 23.4497 18.0625 23.0007 18.0625C22.5507 18.0625 22.1137 18.1505 21.7027 18.3245C21.3057 18.4925 20.9487 18.7325 20.6437 19.0385C20.4357 19.2465 20.2577 19.4775 20.1127 19.7295H11.3327C10.4117 19.7295 9.66571 20.4755 9.66571 21.3955C9.66571 22.3165 10.4117 23.0625 11.3327 23.0625H20.1127C20.2577 23.3135 20.4357 23.5445 20.6437 23.7525C20.9487 24.0595 21.3057 24.2995 21.7027 24.4675C22.1137 24.6415 22.5507 24.7295 23.0007 24.7295C23.4497 24.7295 23.8877 24.6415 24.2987 24.4675C24.6957 24.2995 25.0527 24.0595 25.3577 23.7525C25.6637 23.4475 25.9037 23.0905 26.0717 22.6935C26.2457 22.2825 26.3347 21.8455 26.3347 21.3955C26.3347 20.9455 26.2457 20.5095 26.0717 20.0975C25.9037 19.7005 25.6637 19.3445 25.3577 19.0385Z" fill="black"/>
<rect x="2" y="2" width="32" height="32" rx="16" stroke="black" stroke-width="2"/>
</svg>

<svg xmlns="http://www.w3.org/2000/svg" width="36" height="36" fill="none"><path fill="#000" fill-rule="evenodd" d="M13 16.395a1.67 1.67 0 0 1-1.668-1.667A1.67 1.67 0 0 1 13 13.061a1.67 1.67 0 0 1 1.667 1.667A1.67 1.67 0 0 1 13 16.395m2.356-4.024A3.3 3.3 0 0 0 13 11.395a3.32 3.32 0 0 0-2.357.976 3.32 3.32 0 0 0-.976 2.357 3.31 3.31 0 0 0 .976 2.357c.306.306.662.547 1.06.714.411.175.847.263 1.297.263s.886-.088 1.298-.263a3.3 3.3 0 0 0 1.06-.714q.312-.313.53-.69h8.78a1.667 1.667 0 0 0 0-3.334h-8.78a3.3 3.3 0 0 0-.53-.69M23 23.063a1.67 1.67 0 0 1-1.666-1.668c0-.918.748-1.665 1.667-1.665s1.667.747 1.667 1.665A1.67 1.67 0 0 1 23 23.063m2.358-4.024A3.3 3.3 0 0 0 23 18.062a3.31 3.31 0 0 0-2.357.976 3.3 3.3 0 0 0-.531.692h-8.78a1.666 1.666 0 1 0 0 3.332h8.78q.218.378.53.69A3.312 3.312 0 0 0 23 24.73a3.32 3.32 0 0 0 2.358-.976 3.313 3.313 0 0 0 .977-2.357 3.32 3.32 0 0 0-.977-2.358" clip-rule="evenodd"/><rect width="32" height="32" x="2" y="2" stroke="#000" stroke-width="2" rx="16"/></svg>
